Newaita-dark/emblems/48/emblem-photos.svg

<svg height="48" viewBox="0 0 48 48" width="48" xmlns="http://www.w3.org/2000/svg"><path d="m399.961827 255.093763c-88.652956 0-159.984731 71.331775-159.984731 159.984731v239.977096c0 44.405211 35.74462 79.992365 79.992365 79.992365 44.405211 0 79.992366-35.587154 79.992366-79.992365v-159.984731c0-44.247745 35.74462-79.992365 79.992365-79.992365h159.984731c44.40521 0 79.992365-35.587155 79.992365-79.992365 0-44.247746-35.587155-79.992366-79.992365-79.992366zm880.073483 0c-44.40521 0-79.992365 35.74462-79.992365 79.992366 0 44.40521 35.587155 79.992365 79.992365 79.992365h159.984731c44.247745 0 79.992365 35.74462 79.992365 79.992365v159.984731c0 44.405211 35.74462 79.992365 79.992366 79.992365 44.247745 0 79.992365-35.587154 79.992365-79.992365v-239.977096c0-88.652956-71.331775-159.984731-159.984731-159.984731zm-960.065849 960.065849c-44.247745 0-79.992365 35.587155-79.992365 79.992366v239.977096c0 88.652956 71.331775 159.98473 159.984731 159.98473h239.977096c44.40521 0 79.992365-35.74462 79.992365-79.992365s-35.587155-79.992365-79.992365-79.992365h-159.984731c-44.247745 0-79.992365-35.74462-79.992365-79.992366v-159.98473c0-44.405211-35.587155-79.992366-79.992366-79.992366zm1280.035311 0c-44.247746 0-79.992366 35.587155-79.992366 79.992366v159.98473c0 44.247746-35.74462 79.992366-79.992365 79.992366h-159.984731c-44.40521 0-79.992365 35.74462-79.992365 79.992365s35.587155 79.992365 79.992365 79.992365h239.977096c88.652956 0 159.984731-71.331774 159.984731-159.98473v-239.977096c0-44.405211-35.74462-79.992366-79.992365-79.992366zm0 0" fill="none" stroke="#424242" stroke-linejoin="round" stroke-width="309.921265" transform="scale(.0248071)"/><path d="m9.921875 6.328125c-2.199219 0-3.96875 1.769531-3.96875 3.96875v5.953125c0 1.101562.886719 1.984375 1.984375 1.984375 1.101562 0 1.984375-.882813 1.984375-1.984375v-3.96875c0-1.097656.886719-1.984375 1.984375-1.984375h3.96875c1.101562 0 1.984375-.882813 1.984375-1.984375 0-1.097656-.882813-1.984375-1.984375-1.984375zm21.832031 0c-1.101562 0-1.984375.886719-1.984375 1.984375 0 1.101562.882813 1.984375 1.984375 1.984375h3.96875c1.097656 0 1.984375.886719 1.984375 1.984375v3.96875c0 1.101562.886719 1.984375 1.984375 1.984375s1.984375-.882813 1.984375-1.984375v-5.953125c0-2.199219-1.769531-3.96875-3.96875-3.96875zm-23.816406 23.816406c-1.097656 0-1.984375.882813-1.984375 1.984375v5.953125c0 2.199219 1.769531 3.96875 3.96875 3.96875h5.953125c1.101562 0 1.984375-.886719 1.984375-1.984375s-.882813-1.984375-1.984375-1.984375h-3.96875c-1.097656 0-1.984375-.886719-1.984375-1.984375v-3.96875c0-1.101562-.882813-1.984375-1.984375-1.984375zm31.753906 0c-1.097656 0-1.984375.882813-1.984375 1.984375v3.96875c0 1.097656-.886719 1.984375-1.984375 1.984375h-3.96875c-1.101562 0-1.984375.886719-1.984375 1.984375s.882813 1.984375 1.984375 1.984375h5.953125c2.199219 0 3.96875-1.769531 3.96875-3.96875v-5.953125c0-1.101562-.886719-1.984375-1.984375-1.984375zm0 0" fill="#fafafa"/></svg>

<?xml version="1.0" encoding="UTF-8"?>
<svg xmlns="http://www.w3.org/2000/svg" xmlns:xlink="http://www.w3.org/1999/xlink" width="48px" height="48px" viewBox="0 0 48 48" version="1.1">
<g id="surface1">
<path style="fill:none;stroke-width:309.921265;stroke-linecap:butt;stroke-linejoin:round;stroke:rgb(25.882354%,25.882354%,25.882354%);stroke-opacity:1;stroke-miterlimit:4;" d="M 399.961827 255.093763 C 311.308871 255.093763 239.977096 326.425538 239.977096 415.078494 L 239.977096 655.05559 C 239.977096 699.460801 275.721716 735.047955 319.969461 735.047955 C 364.374672 735.047955 399.961827 699.460801 399.961827 655.05559 L 399.961827 495.070859 C 399.961827 450.823114 435.706447 415.078494 479.954192 415.078494 L 639.938923 415.078494 C 684.344133 415.078494 719.931288 379.491339 719.931288 335.086129 C 719.931288 290.838383 684.344133 255.093763 639.938923 255.093763 Z M 1280.03531 255.093763 C 1235.6301 255.093763 1200.042945 290.838383 1200.042945 335.086129 C 1200.042945 379.491339 1235.6301 415.078494 1280.03531 415.078494 L 1440.020041 415.078494 C 1484.267786 415.078494 1520.012406 450.823114 1520.012406 495.070859 L 1520.012406 655.05559 C 1520.012406 699.460801 1555.757026 735.047955 1600.004772 735.047955 C 1644.252517 735.047955 1679.997137 699.460801 1679.997137 655.05559 L 1679.997137 415.078494 C 1679.997137 326.425538 1608.665362 255.093763 1520.012406 255.093763 Z M 319.969461 1215.159612 C 275.721716 1215.159612 239.977096 1250.746767 239.977096 1295.151978 L 239.977096 1535.129074 C 239.977096 1623.78203 311.308871 1695.113804 399.961827 1695.113804 L 639.938923 1695.113804 C 684.344133 1695.113804 719.931288 1659.369184 719.931288 1615.121439 C 719.931288 1570.873694 684.344133 1535.129074 639.938923 1535.129074 L 479.954192 1535.129074 C 435.706447 1535.129074 399.961827 1499.384454 399.961827 1455.136708 L 399.961827 1295.151978 C 399.961827 1250.746767 364.374672 1215.159612 319.969461 1215.159612 Z M 1600.004772 1215.159612 C 1555.757026 1215.159612 1520.012406 1250.746767 1520.012406 1295.151978 L 1520.012406 1455.136708 C 1520.012406 1499.384454 1484.267786 1535.129074 1440.020041 1535.129074 L 1280.03531 1535.129074 C 1235.6301 1535.129074 1200.042945 1570.873694 1200.042945 1615.121439 C 1200.042945 1659.369184 1235.6301 1695.113804 1280.03531 1695.113804 L 1520.012406 1695.113804 C 1608.665362 1695.113804 1679.997137 1623.78203 1679.997137 1535.129074 L 1679.997137 1295.151978 C 1679.997137 1250.746767 1644.252517 1215.159612 1600.004772 1215.159612 Z M 1600.004772 1215.159612 " transform="matrix(0.0248071,0,0,0.0248071,0,0)"/>
<path style=" stroke:none;fill-rule:nonzero;fill:rgb(98.039216%,98.039216%,98.039216%);fill-opacity:1;" d="M 9.921875 6.328125 C 7.722656 6.328125 5.953125 8.097656 5.953125 10.296875 L 5.953125 16.25 C 5.953125 17.351562 6.839844 18.234375 7.9375 18.234375 C 9.039062 18.234375 9.921875 17.351562 9.921875 16.25 L 9.921875 12.28125 C 9.921875 11.183594 10.808594 10.296875 11.90625 10.296875 L 15.875 10.296875 C 16.976562 10.296875 17.859375 9.414062 17.859375 8.3125 C 17.859375 7.214844 16.976562 6.328125 15.875 6.328125 Z M 31.753906 6.328125 C 30.652344 6.328125 29.769531 7.214844 29.769531 8.3125 C 29.769531 9.414062 30.652344 10.296875 31.753906 10.296875 L 35.722656 10.296875 C 36.820312 10.296875 37.707031 11.183594 37.707031 12.28125 L 37.707031 16.25 C 37.707031 17.351562 38.59375 18.234375 39.691406 18.234375 C 40.789062 18.234375 41.675781 17.351562 41.675781 16.25 L 41.675781 10.296875 C 41.675781 8.097656 39.90625 6.328125 37.707031 6.328125 Z M 7.9375 30.144531 C 6.839844 30.144531 5.953125 31.027344 5.953125 32.128906 L 5.953125 38.082031 C 5.953125 40.28125 7.722656 42.050781 9.921875 42.050781 L 15.875 42.050781 C 16.976562 42.050781 17.859375 41.164062 17.859375 40.066406 C 17.859375 38.96875 16.976562 38.082031 15.875 38.082031 L 11.90625 38.082031 C 10.808594 38.082031 9.921875 37.195312 9.921875 36.097656 L 9.921875 32.128906 C 9.921875 31.027344 9.039062 30.144531 7.9375 30.144531 Z M 39.691406 30.144531 C 38.59375 30.144531 37.707031 31.027344 37.707031 32.128906 L 37.707031 36.097656 C 37.707031 37.195312 36.820312 38.082031 35.722656 38.082031 L 31.753906 38.082031 C 30.652344 38.082031 29.769531 38.96875 29.769531 40.066406 C 29.769531 41.164062 30.652344 42.050781 31.753906 42.050781 L 37.707031 42.050781 C 39.90625 42.050781 41.675781 40.28125 41.675781 38.082031 L 41.675781 32.128906 C 41.675781 31.027344 40.789062 30.144531 39.691406 30.144531 Z M 39.691406 30.144531 "/>
</g>
</svg>
